X:22
T:Vals
R:vals
Z:id:hn-vals-22
M:3/4
K:Ddor
Ad^c|A2 A^c ec|d2 de fe|^c2 cd ec|d3 Ad^c|
A2 A^c ec|d2 de fe|^c2 cd ec|d3:|
|:Adf|a2 ag gb|g2 ge fe|d2 fe ^c2|A3 Adf|
a2 ag gb|g2 ge fe|d2 fe ^c2|d3:|
<end>
<start>
